X:1
T:Bad Canstatt, 87.87 D
T:Bad Canstatt, 87.87 D
T:Frederick Augustus Fillmore, 1888
T:Public Domain Courtesy of the Cyber Hymnal™
C:Frederick Augustus Fillmore, 1888
Z:Public Domain
Z:Courtesy of the Cyber Hymnal™
%%score ( 1 2 ) 3
L:1/8
Q:1/4=100
M:3/4
K:Ab
V:1 treble 
V:2 treble 
V:3 bass 
V:1
 [CE][Ec] | [DB]2 [CA]2 [A,C][DF] | [DF]2 [CE]2 E[Ed] | [Ec]2 [EB]2 [DF][DG] | [CA]4 [CE][Ec] | %5
 [DB]2 [CA]2 [A,C][DF] | [DF]2 [CE]2 E[Ed] | [Ec]2 [EB]2 [DF][DG] | [CA]4 [EA][EA] | %9
 [EG]2 [EB]2 [EB][EB] | [EA]2 [Ac]2 [Ac][Ac] | [Ac]2 [AB]2 [FA][=DF] | E4 [CE][Ec] | %13
 [DB]2 [CA]2 [A,C][DF] | [DF]2 [CE]2 E[Ed] | [Ec]2 [EB]2 [DF][DG] | [CA]4 |] %17
V:2
 x2 | x6 | x4 E x | x6 | x6 | x6 | x4 E x | x6 | x6 | x6 | x6 | x6 | E4 x2 | x6 | x4 E x | x6 | %16
 x4 |] %17
V:3
 [A,,A,][A,,A,] | [A,,A,]2 [A,,A,]2 [A,,E,][A,,A,] | [A,,A,]2 [A,,A,]2 [E,G,][E,B,] | %3
 [E,A,]2 [E,G,]2 [E,B,][E,B,] | [A,,A,]4 [A,,A,][A,,A,] | [A,,A,]2 [A,,A,]2 [A,,E,][A,,A,] | %6
 [A,,A,]2 [A,,A,]2 [E,G,][E,B,] | [E,A,]2 [E,G,]2 [E,B,][E,B,] | [A,,A,]4 [A,C][A,C] | %9
 [E,B,]2 [E,D]2 [E,D][E,D] | [A,C]2 [A,E]2 [A,E][A,E] | [B,=D]2 [B,D]2 [B,,B,][B,,A,] | %12
 [E,G,]4 [A,,A,][A,,A,] | [A,,A,]2 [A,,A,]2 [A,,E,][A,,A,] | [A,,A,]2 [A,,A,]2 [E,G,][E,B,] | %15
 [E,A,]2 [E,G,]2 [E,B,][E,B,] | [A,,A,]4 |] %17

